X:8372
%17616
T:Ton double plin
%T:TD2
G:Kazimodal
R:Dañs Plin
C:Traditionnel
Q:C2/1=160
P:F4
M:4/4
S:basse bourdon accordéon
K:Am
P:F
\large
"Dm"A |: "C"G>F GA "Bb"DC DA | "C"G>F "Am"GA "Dm"D2 DA :|
"C"G>F GA "Bb"dc AA | "C"GF "Gm"GB "Am"A3 "F"A |\
"C"G>F GA "Bb"dc AA | "C"GF "Bb"F"C"E "Dm"D2 DA 
%Warning : No repeat expected, found :|
:|
\bigskip


